X: 40210
T: Tinker's Frolic, The
R: reel
M: 4/4
K: Adorian
|:e~A3 ~e2dB|e~A3 dG (3Bcd|e~A3 eage|1 dBGB dGBd:|2 dz GB dGBG||
|:~A3B GABG|~A2 Bd (3efg dB|~A3B GABe|1 dBGB dGBG:|2 dz GB d ~g2f||

